X:11
T:Bread Street (Second version)
M:4/4
L:1/8
C:Taz Tarry
S:Copyright B.Tarry 1992
R:Reel
Q:1/4=150
K:D
|:(3ABc|dcde fdAF|GABG FAEA|FAGB ABcA|cdef g2(3ABc|
dcde fdAF|GABG FAEA|FAGB ABcA|cgec d2:|
|:D2|DEFA AFED|FGAB Agec|cdef gece|edcB AGFE|
DEFA AFED|FGAB Agec|cdef gece|egecd2:|

